assets/img/braze_icons/message-text-circle-02.svg

<svg fill="none" height="24" viewBox="0 0 24 24" width="24" xmlns="http://www.w3.org/2000/svg"><path clip-rule="evenodd" d="m12 2c-5.52285 0-10 4.47715-10 10 0 1.3283.25952 2.5985.73156 3.7608.04263.105.06716.1656.08396.2103l.00511.0138-.00063.0048c-.005.0369-.01328.0872-.02929.1833l-.59777 3.5866c-.02682.1606-.05683.3403-.06861.4964-.01285.1701-.01732.4409.1054.727.15171.3537.43357.6356.78727.7873.28612.1227.55686.1182.72704.1054.15609-.0118.33581-.0418.49645-.0686l3.58656-.5978c.09604-.016.14634-.0243.18325-.0293l.00475-.0006.01382.0051c.04475.0168.10536.0413.21034.0839 1.16229.4721 2.43249.7316 3.76079.7316 5.5228 0 10-4.4772 10-10 0-5.52285-4.4772-10-10-10zm-4 6.5c-.55228 0-1 .44772-1 1 0 .5523.44772 1 1 1h4c.5523 0 1-.4477 1-1 0-.55228-.4477-1-1-1zm0 3.5c-.55228 0-1 .4477-1 1s.44772 1 1 1h7c.5523 0 1-.4477 1-1s-.4477-1-1-1z" fill="#801ed7" fill-rule="evenodd"/></svg>

<svg width="24" height="24" viewBox="0 0 24 24" fill="none" xmlns="http://www.w3.org/2000/svg">
<path fill-rule="evenodd" clip-rule="evenodd" d="M12 2C6.47715 2 2 6.47715 2 12C2 13.3283 2.25952 14.5985 2.73156 15.7608C2.77419 15.8658 2.79872 15.9264 2.81552 15.9711L2.82063 15.9849L2.82 15.9897C2.815 16.0266 2.80672 16.0769 2.79071 16.173L2.19294 19.7596C2.16612 19.9202 2.13611 20.0999 2.12433 20.256C2.11148 20.4261 2.10701 20.6969 2.22973 20.983C2.38144 21.3367 2.6633 21.6186 3.017 21.7703C3.30312 21.893 3.57386 21.8885 3.74404 21.8757C3.90013 21.8639 4.07985 21.8339 4.24049 21.8071L7.82705 21.2093C7.92309 21.1933 7.97339 21.185 8.0103 21.18L8.01505 21.1794L8.02887 21.1845C8.07362 21.2013 8.13423 21.2258 8.23921 21.2684C9.4015 21.7405 10.6717 22 12 22C17.5228 22 22 17.5228 22 12C22 6.47715 17.5228 2 12 2ZM8 8.5C7.44772 8.5 7 8.94772 7 9.5C7 10.0523 7.44772 10.5 8 10.5H12C12.5523 10.5 13 10.0523 13 9.5C13 8.94772 12.5523 8.5 12 8.5H8ZM8 12C7.44772 12 7 12.4477 7 13C7 13.5523 7.44772 14 8 14H15C15.5523 14 16 13.5523 16 13C16 12.4477 15.5523 12 15 12H8Z" fill="#801ED7"/>
</svg>
